icons/filled/square-rounded-letter-k.svg

<svg xmlns="http://www.w3.org/2000/svg" width="24" height="24" viewBox="0 0 24 24" fill="currentColor"><path d="M11.676 2.001l.324 -.001c7.752 0 10 2.248 10 10l-.005 .642c-.126 7.235 -2.461 9.358 -9.995 9.358l-.642 -.005c-7.13 -.125 -9.295 -2.395 -9.358 -9.67v-.325c0 -7.643 2.185 -9.936 9.676 -9.999m2.854 5.151a1 1 0 0 0 -1.378 .318l-2.152 3.443v-2.913a1 1 0 0 0 -.883 -.993l-.117 -.007a1 1 0 0 0 -1 1v8a1 1 0 0 0 2 0v-2.914l2.152 3.444a1 1 0 0 0 1.276 .374l.102 -.056l.095 -.068a1 1 0 0 0 .223 -1.31l-2.17 -3.47l2.17 -3.47a1 1 0 0 0 -.318 -1.378"/></svg>

<svg xmlns="http://www.w3.org/2000/svg" width="24" height="24" fill="currentColor"><path d="M11.676 2.001 12 2c7.752 0 10 2.248 10 10l-.005.642C21.869 19.877 19.534 22 12 22l-.642-.005C4.228 21.87 2.063 19.6 2 12.325V12c0-7.643 2.185-9.936 9.676-9.999m2.854 5.151a1 1 0 0 0-1.378.318L11 10.913V8a1 1 0 0 0-.883-.993L10 7a1 1 0 0 0-1 1v8a1 1 0 0 0 2 0v-2.914l2.152 3.444a1 1 0 0 0 1.276.374l.102-.056.095-.068a1 1 0 0 0 .223-1.31L12.678 12l2.17-3.47a1 1 0 0 0-.318-1.378"/></svg>
